symbols/web/sort_by_alpha/materialsymbolsrounded/sort_by_alpha_wght600grad200_48px.svg

<svg xmlns="http://www.w3.org/2000/svg" height="48" width="48"><path d="M6.2 34.25q-1.05 0-1.525-.7-.475-.7-.125-1.8l6.6-16.35q.25-.65 1-1.15.75-.5 1.6-.5.7 0 1.425.5.725.5 1.025 1.15l6.5 16.35q.35 1.05-.125 1.775-.475.725-1.575.725-.45 0-.875-.3t-.525-.75L18 29.3H9.15l-1.55 4q-.2.4-.575.675-.375.275-.825.275Zm4.1-8.05h6.55l-3.15-8.4h-.25Zm19.4 8.05q-1 0-1.725-.7-.725-.7-.725-1.7 0-.45.175-1.025t.475-.925l10.75-13.05H29.7q-.6 0-1.075-.475t-.475-1.125q0-.55.475-1.025.475-.475 1.075-.475h10.2q.95 0 1.675.725.725.725.725 1.725 0 .45-.2 1.025t-.5.925l-10.55 13h9.8q.55 0 1.05.475t.5 1.075q0 .6-.5 1.075t-1.05.475Zm-8.4-25.3q-.7 0-.975-.65t.225-1.15l2.7-2.75q.15-.05.75-.3.15 0 .75.3l2.75 2.75q.5.5.25 1.15-.25.65-.95.65Zm2.7 34.9q-.1 0-.75-.3l-2.7-2.7q-.5-.5-.25-1.15.25-.65.95-.65h5.5q.7 0 .975.65t-.225 1.15l-2.75 2.7q-.05.05-.75.3Z"/></svg>

<svg xmlns="http://www.w3.org/2000/svg" height="48" width="48"><path d="M6.2 34.25Q5.15 34.25 4.675 33.55Q4.2 32.85 4.55 31.75L11.15 15.4Q11.4 14.75 12.15 14.25Q12.9 13.75 13.75 13.75Q14.45 13.75 15.175 14.25Q15.9 14.75 16.2 15.4L22.7 31.75Q23.05 32.8 22.575 33.525Q22.1 34.25 21 34.25Q20.55 34.25 20.125 33.95Q19.7 33.65 19.6 33.2L18 29.3H9.15L7.6 33.3Q7.4 33.7 7.025 33.975Q6.65 34.25 6.2 34.25ZM10.3 26.2H16.85L13.7 17.8H13.45ZM29.7 34.25Q28.7 34.25 27.975 33.55Q27.25 32.85 27.25 31.85Q27.25 31.4 27.425 30.825Q27.6 30.25 27.9 29.9L38.65 16.85H29.7Q29.1 16.85 28.625 16.375Q28.15 15.9 28.15 15.25Q28.15 14.7 28.625 14.225Q29.1 13.75 29.7 13.75H39.9Q40.85 13.75 41.575 14.475Q42.3 15.2 42.3 16.2Q42.3 16.65 42.1 17.225Q41.9 17.8 41.6 18.15L31.05 31.15H40.85Q41.4 31.15 41.9 31.625Q42.4 32.1 42.4 32.7Q42.4 33.3 41.9 33.775Q41.4 34.25 40.85 34.25ZM21.3 8.95Q20.6 8.95 20.325 8.3Q20.05 7.65 20.55 7.15L23.25 4.4Q23.4 4.35 24 4.1Q24.15 4.1 24.75 4.4L27.5 7.15Q28 7.65 27.75 8.3Q27.5 8.95 26.8 8.95ZM24 43.85Q23.9 43.85 23.25 43.55L20.55 40.85Q20.05 40.35 20.3 39.7Q20.55 39.05 21.25 39.05H26.75Q27.45 39.05 27.725 39.7Q28 40.35 27.5 40.85L24.75 43.55Q24.7 43.6 24 43.85Z"/></svg>
